!!!!SEGMENT: pl-wnifc--6730-n--001-030_sowinski-wojciech--chants-religieux-de-la-pologne-op-93-prieres-et-supplications-sanctus-deus-sanctus-fortis.krn
!!!cenid: 18xx:4044
!!!COM: Sowiński, Wojciech
!!!COM-rismID: pe30008543
!!!CDT: ~1803-1880/03/05
!!!CNT: Polish
!!!GTL: Chants religieux de la Pologne op. 93
!!!OTL: Prières et supplications/Sanctus Deus sanctus fortis
!!!OMV: 030
!!!PDT: 1830
!!!AGN:
!!!YEC: Copyright 2022 Narodowy Instytut Fryderyka Chopina (https://polishscores.org)
!!!YEM: License CC-BY-4.0 (https://creativecommons.org/licenses/by/4.0)
!!!SMS-siglum: PL-Wnifc
!!!SMS-shelfmark: 6730/n
!!!SMS-shelfwork: 001-030 G
!!!SMS-variant:
!!!SMS-altvar:
!!!NIFC-rismSourceID: 1001138221
!!!NIFC-rismChildID: 1001138488
!!!NIFC-islandoraID: nifc:213350
!!!URL-pdf-islandora: https://repozytorium.nifc.pl/islandora/object/nifc%3A213350/datastream/PDF/view
!!!URL-scan: https://polish.musicsources.pl/pl/lokalizacje/galeria/druki-muzyczne/16913 @EN{Scan on Polish Music Sources Website} @PL{Skany w portalu Dziedzictwo Muzyki Polskiej w otwartym dostępie}
!!!IIIF:
!!!ONB-nifc: UWAGA: str. 120-121
!!!AIN: 1 calto 2 organ 2 vox
!!!key: a
**kern	**kern	**dynam	**kern	**text	**dynam	**kern	**text	**dynam	**kern	**text	**dynam
*part5	*part4	*	*part3	*	*	*part2	*	*	*part1	*	*
*staff5	*staff4	*	*staff3	*	*	*staff2	*	*	*staff1	*	*
*I"ORGUE.	*I"ORGUE.	*	*I"CONTRALTO.	*	*	*I"2o. DESSUS.	*	*	*I"1er. DESSUS.	*	*
*I'org	*I'org	*	*I'CA	*	*	*I'D 2	*	*	*I'D 1	*	*
*ICklav	*ICklav	*	*ICvox	*	*	*ICvox	*	*	*ICvox	*	*
*Iorgan	*Iorgan	*	*Icalto	*	*	*Ivox	*	*	*Ivox	*	*
*clefF4	*clefG2	*	*clefG2	*	*	*clefG2	*	*	*clefG2	*	*
*k[]	*k[]	*	*k[]	*	*	*k[]	*	*	*k[]	*	*
*a:	*a:	*	*a:	*	*	*a:	*	*	*a:	*	*
*M4/4	*M4/4	*	*M4/4	*	*	*M4/4	*	*	*M4/4	*	*
*met(c)	*met(c)	*	*met(c)	*	*	*met(c)	*	*	*met(c)	*	*
=1	=1	=1	=1	=1	=1	=1	=1	=1	=1	=1	=1
!	!	!	!	!	!	!	!	!	!LO:TX:a:B:t=Lento lamentoso.	!	!
1AA;< 1A	1c; 1f 1a	.	1r;	.	.	1r;	.	.	1r;	.	.
=2	=2	=2	=2	=2	=2	=2	=2	=2	=2	=2	=2
!	!	!	!	!	!LO:HP:a	!	!	!LO:HP:a	!	!	!LO:HP:a
!	!	!	!	!	!LO:DY:a	!	!	!LO:DY:a	!	!	!LO:DY:a
2AA/ 2A	2c/ 2e 2a	p <	2c/	Sanc-	p <	2e/	Sanc-	p <	2a/	Sanc-	p <
4AA/ 4A	4c/ 4e 4a	.	4c/	-tus	.	4e/	-tus	.	4a/	-tus	.
!	!	!	!	!	!LO:HP:a	!	!	!LO:HP:a	!	!	!LO:HP:a
2EE/ 2E	2B/ 2e 2g#X	[ >	2B/	De-	[ >	2e/	De-	[ >	2g#X/	De-	[ >
2AA/ 2A	2c/ 2e 2a	]]	2c/	-us	]]	2e/	-us	]]	2a/	-us	]]
=3	=3	=3	=3	=3	=3	=3	=3	=3	=3	=3	=3
*	*^	*	*	*	*	*	*	*	*	*	*
!	!	!	!	!	!	!LO:HP:a	!	!	!LO:HP:a	!	!	!LO:HP:a
2AAA/ 2AA	2ryy	2c/ 2e 2a	<	2c/	Sanc-	<	2e/	Sanc-	<	2a/	Sanc-	<
4CC/ 4C	4ryy	4c/ 4e 4a	.	4c/	-tus	.	4e/	-tus	.	4a/	-tus	.
!	!	!	!	!	!	!LO:HP:a	!	!	!LO:HP:a	!	!	!LO:HP:a
2EE/ 2E	2e/ 2g#X	4B\	[ >	(<4B/	for-	[ >	2e/	for-	[ >	2g#X/	for-	[ >
.	.	4d\	.	4d/)	.	.	.	.	.	.	.	.
2AAA/ 2AA	2a/	2c\	]]	2c/	-tis	]]	2e/	-tis	]]	2a/	-tis	]]
*	*v	*v	*	*	*	*	*	*	*	*	*	*
!!LO:LB:g=original	!	!	!	!	!	!	!	!	!	!	!
=4	=4	=4	=4	=4	=4	=4	=4	=4	=4	=4	=4
!	!	!	!	!	!LO:HP:a	!	!	!LO:HP:a	!	!	!LO:HP:a
2AAA/ 2AA	2c/ 2e 2cc	.	2e/	Sanc-	<	2a/	Sanc-	<	2cc\	Sanc-	<
4AAA/ 4AA	4e/ 4cc	.	4e/	-tus	.	4a/	-tus	.	4cc\	-tus	.
2AAA/ 2AA	2e/ 2cc	.	2e/	im-	.	2a/	im-	.	2cc\	im-	.
4DD/ 4D	4d/ 4f 4a	.	4d/	-mor-	.	4f/	-mor-	.	4a\	-mor-	.
2AAA/ 2AA	2e/ 2a 2cc	>	2e/	-ta-	.	2a/	-ta-	.	2cc\	-ta-	.
2EE/ 2E	2e/ 2g#X 2b	]]	2e/	-lis	.	2g#X/	-lis	[[	2b\	-lis	.
=5	=5	=5	=5	=5	=5	=5	=5	=5	=5	=5	=5
*	*^	*	*	*	*	*	*	*	*	*	*
!	!	!	!LO:DY:a	!	!	!LO:DY:a	!	!	!LO:DY:a	!	!	!LO:DY:a
2.EE/ 2.E	2.e/ 2.g#X 2.b	2.ryy	p >	2e/	mi-	p	2g#X/	mi-	p	2b\	mi-	p
.	.	.	.	4e/	-se-	.	4g#/	-se-	.	4b\	-se-	.
2AAA/ 2AA	2e/ 2a 2cc	2ryy	]	2e/	-re-	.	2a/	-re-	.	2cc\	-re-	.
4DD/ 4D	4B/ 4f 4a	4ryy	.	4d/	-re	.	4f/	-re	.	4a/	-re	.
!	!	!LO:N:vis=2	!	!	!	!	!	!	!	!	!	!
2EE/ 2E	2B/ 2e 2g#X	4B\	.	(4e/	no-	.	2e/	no-	.	2g#X/	no-	.
.	.	4d\	p	4d/)	.	.	.	.	.	.	.	.
2AAA;</ 2AA	2A;/ 2c 2a	2ryy	.	2c;/	-bis	.	2e;/	-bis	.	2a;/	-bis	.
*	*v	*v	*	*	*	*	*	*	*	*	*	*
!!LO:PB:g=original	!	!	!	!	!	!	!	!	!	!	!
==6	==6	==6	==6	==6	==6	==6	==6	==6	==6	==6	==6
!	!	!	!	!	!	!	!	!LO:DY:a	!	!	!LO:DY:a
4AA\ 4A	4c/ 4e 4a	f	4e/	nos	f	4a/	nos	f	4a/	nos	f
4GG\ 4G	4d/ 4f 4b	.	4d/	.	.	4f/	.	.	4b\	.	.
2CC/ 2C	2c/ 2e 2cc	.	2c/	po-	.	2e/	po-	.	2cc\	po-	.
4CC/ 4C	4c/ 4e 4cc	.	4e/	-pu-	.	4g/	-pu-	.	4cc\	-pu-	.
2CC/ 2C	2c/ 2e 2cc	.	2e/	-lus	.	2g/	-lus	.	2cc\	-lus	.
4CC/ 4C	4c/ 4e 4cc	.	4e/	tu-	.	4g/	tu-	.	4cc\	tu-	.
2CC/ 2C	2c/ 2e 2cc	.	2e/	-us	.	2g/	-us	.	2cc\	-us	.
=7	=7	=7	=7	=7	=7	=7	=7	=7	=7	=7	=7
1CC 1C	1c 1e 1cc	.	4e/	et	.	4g/	et	.	4cc\	et	.
.	.	.	2e/	o-	.	2g/	o-	.	2cc\	o-	.
.	.	.	4e/	-ves	.	4g/	-ves	.	4cc\	-ves	.
2CC/ 2C	2c/ 2e 2cc	.	4e/	pas-	.	4g/	pas-	.	4cc\	pas-	.
.	.	.	4e/	-cu-	.	4g/	-cu-	.	4cc\	-cu-	.
4CC/ 4C	4c/ 4e 4cc	.	4e/	-ac	.	4g/	-ac	.	4cc\	-ac	.
!!LO:LB:g=original	!	!	!	!	!	!	!	!	!	!	!
=8	=8	=8	=8	=8	=8	=8	=8	=8	=8	=8	=8
!	!	!	!	!	!	!	!	!	!	!	!LO:HP:a
2.CC/ 2.C	2.c/ 2.e 2.cc	.	2e/	tu-	.	2g/	tu-	.	2cc\	tu-	<
.	.	.	4e/	-ae	.	4g/	-ae	.	4cc\	-ae	.
2CC/ 2C	2c/ 2e 2cc	.	2e/	Do-	.	2g/	Do-	.	2cc\	Do-	.
!	!	!	!	!	!	!	!	!	!	!	!LO:HP:a
4CC/ 4C	4e/ 4g 4cc	.	4e/	-mi-	.	4g/	-mi-	.	4cc\	-mi-	[ >
2GG;</ 2G	2d;/ 2g 2b	f	2d;/	-ne	.	2g;/	-ne	.	2b\	-ne	]]
=9	=9	=9	=9	=9	=9	=9	=9	=9	=9	=9	=9
*^	*^	*	*	*	*	*	*	*	*	*	*
!	!	!	!	!	!	!	!	!	!	!	!	!	!LO:HP:a
!	!	!	!	!LO:DY:a	!	!	!	!	!	!LO:DY:a	!	!	!LO:DY:a
2E/	2EE\	2.e/ 2.g#X 2.b	2.ryy	p <	2e/	mi-	.	2g#X/	mi-	p	2b\	mi-	p <
4D/	2ryy	.	.	.	4e/	-se-	.	4g#/	-se-	.	4b\	-se-	.
4C/	.	2e/ 2a 2cc	2ryy	[	2e/	-re-	.	2a/	-re-	.	2cc\	-re-	[
4AA/	1ryy	.	.	.	.	.	.	.	.	.	.	.	.
4DD/ 4D	.	4B/ 4f 4a	4ryy	.	4d/	-re	.	4f/	-re	.	4a/	-re	.
!	!	!	!	!	!	!	!	!	!	!	!	!	!LO:DY:a
2EE;</ 2E	.	2e;/ 2g#X	4B\	>	(4e;/	no-	.	2e;/	no-	.	2g#X;/	no-	p
.	.	.	4d\	.	4d/)	.	.	.	.	.	.	.	.
2AAA;</ 2AA	2ryy	2c;/ 2a	2ryy	]	2c;/	-bis	.	2e;/	-bis	.	2a;/	-bis	.
*v	*v	*	*	*	*	*	*	*	*	*	*	*	*
*	*v	*v	*	*	*	*	*	*	*	*	*	*
==	==	==	==	==	==	==	==	==	==	==	==
*-	*-	*-	*-	*-	*-	*-	*-	*-	*-	*-	*-
!!!system-decoration: [(s1,s2,s3)]{(s4,s5)}
!!!RDF**kern: > = above
!!!RDF**kern: < = below
!!!ENC: Andrzej Gręziak
!!!END: 2022-08-17
!!!ENC: Jan Barakat
!!!END: 2022-09-15
